Numix-GalliumOS/32/actions/stock_addressbook.svg

<?xml version="1.0" encoding="UTF-8" standalone="no"?>
<svg
   xmlns:dc="http://purl.org/dc/elements/1.1/"
   xmlns:cc="http://creativecommons.org/ns#"
   xmlns:rdf="http://www.w3.org/1999/02/22-rdf-syntax-ns#"
   xmlns:svg="http://www.w3.org/2000/svg"
   xmlns="http://www.w3.org/2000/svg"
   xmlns:sodipodi="http://sodipodi.sourceforge.net/DTD/sodipodi-0.dtd"
   xmlns:inkscape="http://www.inkscape.org/namespaces/inkscape"
   width="32"
   height="32"
   viewBox="0 0 32 32"
   id="svg2"
   version="1.1"
   inkscape:version="0.91 r13725"
   sodipodi:docname="stock_adressbook.svg">
  <metadata
     id="metadata14">
    <rdf:RDF>
      <cc:Work
         rdf:about="">
        <dc:format>image/svg+xml</dc:format>
        <dc:type
           rdf:resource="http://purl.org/dc/dcmitype/StillImage" />
      </cc:Work>
    </rdf:RDF>
  </metadata>
  <defs
     id="defs12" />
  <sodipodi:namedview
     pagecolor="#ffffff"
     bordercolor="#666666"
     borderopacity="1"
     objecttolerance="10"
     gridtolerance="10"
     guidetolerance="10"
     inkscape:pageopacity="0"
     inkscape:pageshadow="2"
     inkscape:window-width="1366"
     inkscape:window-height="704"
     id="namedview10"
     showgrid="true"
     inkscape:zoom="14.75"
     inkscape:cx="16"
     inkscape:cy="16"
     inkscape:window-x="0"
     inkscape:window-y="27"
     inkscape:window-maximized="1"
     inkscape:current-layer="svg2">
    <inkscape:grid
       type="xygrid"
       id="grid4142" />
  </sodipodi:namedview>
  <path
     style="fill:#6c71c4;fill-rule:evenodd"
     d="M 5.5 0 L 26.5 0 C 30 0 30 0 30 3.554688 L 30 28.445312 C 30 32 30 32 26.5 32 L 5.5 32 C 2 32 2 32 2 28.445312 L 2 3.554688 C 2 0 2 0 5.5 0 Z "
     id="path4" />
  <path
     style="fill:#2d2d2d;fill-opacity:.533"
     d="M 11.144531 8.121094 C 10.367188 10.886719 10.351562 14.71875 11.734375 16.605469 C 12.316406 17.503906 13.109375 18.683594 12.488281 19.753906 C 11.335938 21.425781 9.421875 22.328125 7.675781 23.242188 C 7.085938 23.300781 7.296875 23.855469 7.257812 24.261719 C 7.257812 24.585938 7.160156 25.007812 7.636719 24.855469 L 24.363281 24.855469 C 24.839844 25.007812 24.742188 24.585938 24.742188 24.261719 C 24.703125 23.855469 24.914062 23.300781 24.324219 23.242188 C 22.578125 22.328125 20.664062 21.425781 19.511719 19.753906 C 18.890625 18.683594 19.683594 17.503906 20.265625 16.605469 C 21.726562 14.550781 21.917969 10.078125 20.851562 8.058594 C 19.890625 6.3125 18.917969 5.402344 16 5.332031 C 13.078125 5.453125 12.109375 6.3125 11.144531 8.121094 Z "
     id="path6" />
</svg>

<svg xmlns="http://www.w3.org/2000/svg" viewBox="0 0 32 32">
 <path d="M 5.5 0 L 26.5 0 C 30 0 30 0 30 3.554688 L 30 28.445312 C 30 32 30 32 26.5 32 L 5.5 32 C 2 32 2 32 2 28.445312 L 2 3.554688 C 2 0 2 0 5.5 0 Z " style="fill:#6c71c4;fill-rule:evenodd"/>
 <path d="m 11.145 8.121 c -0.777 2.766 -0.793 6.598 0.59 8.484 c 0.582 0.898 1.375 2.078 0.754 3.148 c -1.152 1.672 -3.066 2.574 -4.813 3.488 c -0.59 0.059 -0.379 0.613 -0.418 1.02 c 0 0.324 -0.098 0.746 0.379 0.594 l 16.727 0 c 0.477 0.152 0.379 -0.27 0.379 -0.594 c -0.039 -0.406 0.172 -0.961 -0.418 -1.02 c -1.746 -0.914 -3.66 -1.816 -4.813 -3.488 c -0.621 -1.07 0.172 -2.25 0.754 -3.148 c 1.461 -2.055 1.652 -6.527 0.586 -8.547 c -0.961 -1.746 -1.934 -2.656 -4.852 -2.727 c -2.922 0.121 -3.891 0.98 -4.855 2.789 Z" style="fill:#2d2d2d;fill-opacity:0.533"/>
</svg>
